X:1
T:Title
%%score { ( 1 2 5 ) | ( 3 4 ) }
L:1/8
Q:1/4=152
M:3/4
K:C
V:1 treble nm="Grand Piano"
V:2 treble 
V:5 treble 
V:3 bass 
V:4 bass 
V:1
 C4 z2 | [CE]4 z2 | z2 z2 c2 | [GB]2 [FA]2 [EG]2 | [DF]4 z2 | [DF]4 z2 | C4[K:bass] z2 | [CE]6 | %8
w: ????~????||||||||
 C4 z2 | [CE]4 z2 | z2 z2 c2 | [GB]2 [FA]2 [EG]2 | [DF]4 z2 | z2 z2 E2 | C4 z2 | C6 | z2 z2 ^F2 | %17
w: |||||||||
 [EG]4[K:bass] z2 | z2 z2 ^F2 | [EG]4[K:bass] z2 | [DF]4 z2 | z2 z2 G2 | [FA]4 z2 | [CE]6[K:bass] | %24
w: |||||||
 z2 z2 ^F2 | [EG]4[K:bass] z2 | z2 z2 ^F2 | [EG]4[K:bass] z2 | [DF]4 z2 | z2 z2 G2 | [FA]4 z2 | %31
w: |||||||
 [CE]6[K:bass] | [Ac]2 [GB]2 [FA]2 | [GB]2 [FA]2 [EG]2 | [FA]2 [EG]2 [DF]2 | [EG]2 [DF]2 [CE]2 | %36
w: |||||
 [Ac]2 [GB]2 [FA]2 | [GB]2 [FA]2 [EG]2 | [FA]2 [EG]2 [DF]2 | [E,G,CE]6 | z2 z2[K:treble] F2 | %41
w: |||||
 [EG]4 z2 | [CF]4 z2 | [FA]4 z2 | z2 z2 A2 | z2 z2 c2 | [Bd]4 z2 | [EGc]6 |] %48
w: |||||||
V:2
 z2 G,4 | z2 G,2 [A,CF]2 | [EG]4 z2 | x6 | z2 G,4 | z2 z2 D2 | z2 G,2[K:bass] [F,G,B,D]2 | z2 G,4 | %8
 z2 G,4 | z2 G,2 [A,CF]2 | [EG]4 z2 | x6 | z2 G,4 | [DF]4 z2 | z2 G,2 B,2 | z2 G,4 | [EG]4 z2 | %17
 z2[K:bass] z2 E2 | [EG]4 z2 | z2[K:bass] z2 E2 | z2 [F,G,]4 | [CF]4 z2 | z2 z2 F2 | %23
 z2[K:bass] [E,G,]2 [E,G,]2 | [EG]4 z2 | z2[K:bass] z2 E2 | [EG]4 z2 | z2[K:bass] z2 E2 | %28
 z2 [F,G,]4 | [CF]4 z2 | z2 z2 F2 | z2[K:bass] [E,G,]2 [E,G,]2 | x6 | x6 | x6 | x6 | x6 | x6 | x6 | %39
 x6 | [CE]4[K:treble] z2 | z2 G,4 | z2 A,4 | z2 z2 F2 | G4 z2 | [GB]4 z2 | z2 z2 B2 | z2 G,4 |] %48
V:3
 C,2 z2 D2 | C,2 E,2 F,2 | C,2 z2 E2 | B,,2 [F,G,]2 [F,G,]2 | B,,2 z2 E2 | B,,2 F,4 | %6
 C,2 E,2 B,,2 | C,2 E,4 | C,2 z2 D2 | C,2 E,2 F,2 | C,2 z2 E2 | B,,2 [F,G,]2 [F,G,]2 | B,,2 z2 E2 | %13
 B,,2 F,4 | C,2 E,2 [B,,F,G,]2 | C,2 E,4 | C,,2 z2 _E2 | G,,2 z2 C2 | C,,2 z2 _E2 | G,,2 z2 C2 | %20
 G,,2 z2 E2 | G,,2 z2 E2 | G,,2 z2 D2 | C,,2 C,2 C,2 | C,,2 z2 _E2 | G,,2 z2 C2 | C,,2 z2 _E2 | %27
 G,,2 z2 C2 | G,,2 z2 E2 | G,,2 z2 E2 | G,,2 z2 D2 | C,,2 C,2 C,2 | [C,F,A,]6 | [B,,F,G,]6 | %34
 [C,F,A,]6 | [C,E,G,]6 | [C,F,A,]6 | [B,,F,G,]6 | [C,F,A,]4 [B,,F,G,]2 | C,6 | C,2 z2 D2 | %41
 C,2 z2 E2 | C,2 z2 G2 | C,2 F,4 | B,,2 z2 F2 | B,,2 z2 A2 | B,,2 z2 G2 | C,2 E,4 |] %48
V:4
 z2 E,4 | x6 | z2 E,4 | x6 | z2 F,4 | x6 | x6 | x6 | z2 E,4 | x6 | z2 E,4 | x6 | z2 F,4 | x6 | x6 | %15
 x6 | z2 C,4 | z2 C,4 | z2 C,4 | z2 C,4 | z2 B,,4 | z2 B,,4 | z2 B,,4 | x6 | z2 C,4 | z2 C,4 | %26
 z2 C,4 | z2 C,4 | z2 B,,4 | z2 B,,4 | z2 B,,4 | x6 | x6 | x6 | x6 | x6 | x6 | x6 | x6 | x6 | %40
 z2 E,4 | z2 E,4 | z2 F,4 | x6 | z2 [D,F,]4 | z2 D,4 | z2 D,4 | x6 |] %48
V:5
 x6 | x6 | z2 G,4 | x6 | x6 | z2 G,4 | x4[K:bass] x2 | x6 | x6 | x6 | z2 G,4 | x6 | x6 | z2 G,4 | %14
 x6 | x6 | z2 [E,G,]4 | z2[K:bass] [E,G,]4 | z2 [E,G,]4 | z2[K:bass] [E,G,]4 | x6 | z2 [F,G,]4 | %22
 z2 [F,G,]4 | x2[K:bass] x4 | z2 [E,G,]4 | z2[K:bass] [E,G,]4 | z2 [E,G,]4 | z2[K:bass] [E,G,]4 | %28
 x6 | z2 [F,G,]4 | z2 [F,G,]4 | x2[K:bass] x4 | x6 | x6 | x6 | x6 | x6 | x6 | x6 | x6 | %40
 z2 G,4[K:treble] | x6 | x6 | z2 A,4 | z2 G,4 | z2 [F,G,]4 | z2 [F,G,]4 | x6 |] %48

